X:35
M:C|
L:1/8
K:Dmin
|:e2|gfed ^c2d2|{B}A4 =B4|^c2d2e2f2|"tr"(g2f2) "tr"(f2e2)|  gfed ^c2d2|{B}A4d4|A2d2 fed^c|d6:|

